X:89
T:Ride a mile
R:Slip jig
O:England
M:9/8
A:Lancashire
B:Winder
K:G
dBG GAG BAG | dBG GAG efg |\
dBG GAG BAG | ecA ABA c2e :|*
|:def gag fed | b2g BcB c2e |\
def gag fed | a2A ABA c2e :|**
